X: 19227
T: It Can't Be Done
R: slide
M: 12/8
K: Amajor
A2B c2d ~e3 c2e|fec e2 c B2c dcB|
A2E A2c e3 e2a|1 fec e2c A2B c2B:|2 fec e2c A2B c2e ]|
~f3 f2e f2e e2c|f2e e2c f2e c2e|
~f3 f2e f2e c2B|A2B c2d e2A c2e|
~f3 ~a3 fec e2c|A2B c2A B2A F2E|
A2B c2d ~e3 c2e|fec e2c A2B c2B||

